X:1
T:Drömde mik en dröm i nat
T:(tolkning Angul Hammerich, 1921)
R:Visa
O:Lund, Skåne
Z:Åke Persson, 2011-09-27
M:4/4
L:1/4
K:D
(G | G) B A B | G F E G | B B/B/ B G | E2 z2 |
w:Erö|öm-ef mik fn|eröm i nbt um|sil-ki ok är-lik|päl
G B A B | B F B2 | F G/E/ G B | F2 z2 ||
"Omkväef" G B A B | G2 A F | E2 |]

